X: 27195
T: Miss Murray Of Lintrose
R: polka
M: 2/4
K: Amajor
|:e|cc/B/ AE|F2 Ed|cA BA/G/|A/B/c/d/ ed/c/|
cc/B/ AE|F2 Ed|cA G/A/B/G/|A3:|
|:c/B/|Ae ed/e/|fd dc/d/|Ed dc/d/|ec cB/A/|
Ec Fd|c2 Bd|cA G/A/B/G/|A3:|

